X:23
T:Fingal's Cave
T:Gul Fhin
T:Fingal's Weeping
R:reel
M:4/4
L:1/8
Z:Gordon Turnbull <gturnbull@oblique-design.demon.co.uk>
B:Cruinn Comhla, ed. Christine Martin & Anne Hughes
K:ADor
EG | A4 BAGA | B2A2 A2ed | B2AG e2dB | d2G2 G2EG |
A4 BAGA | B2A2 A2ed | B2AG e2dB | e2A2 A2 :|
Bd | e2de g2eg | a2ea g4 | e2de g2fg | edBA G2Bd |
e2de g2eg | a2ea g4 | gefd gedB | e2A2 A2Bd |
e2de g2eg | a2ea g4 | e2de g2fg | edBA GABG |
c2Bc d2cd | e2de a4 | gefd gedB | e2A2 A2 |]
